X: 33504
T: Railway, The
R: polka
M: 2/4
K: Gmajor
|:E2 DE|GG- GA|Bc de/d/|BG ED|
E2 DE|GG- GA|Bc de/d/|1 BG GF:|2 BG GA/B/||
|:cd f>a|gB Bc|dF GA|Bc d>B|
cd f>a|gB Bc|dF GA|1 BG GA/B/:|2 BG GF||

